X:1
T:Title
%%score { ( 1 3 ) | ( 2 4 ) }
L:1/8
M:3/4
K:Db
V:1 treble nm="Grand Piano"
V:3 treble 
V:2 bass 
V:4 bass 
V:1
 z2 z2[Q:1/4=86] FE | D3 C DE | F2 [FA]2 [FA][FA] | [Bd]3 [Bd] [Ac][GB] |[M:2/4] [FA]4 | %5
[M:1/4] FF |[M:3/4] G2 E2 FG | [GB]2 [FA]2 [FA][_FB] | %8
[M:15/16] [Ec][Ae]/-[Ae]/[=Gc]- [Gc]3- [Gc]/[GB] |[M:5/8] A-A- A3 |[M:1/4] A=G |[M:3/4] z2 e4 | %12
 [Fd]4 FF | B4 z2 |[M:2/4] c4 |[M:1/4] AA |[M:3/4] [Af]4 z2 |[M:7/8] [Be]2 B3 cB | %18
[M:15/16] Ad/-d/e- e3- e/[Fd] |[M:2/4] [Fd]4 |] %20
V:2
 z2 z2 [D,A,D][D,G,C] | [D,F,]3 [D,G,] [D,F,][D,G,C] | [D,A,D]2 [D,D]2 [D,D][D,D] | %3
 [G,D]3 [G,D] [G,D][G,D] |[M:2/4] [D,D]4 |[M:1/4] [D,A,D][D,A,D] | %6
[M:3/4] [A,CE]2 [A,C]2 [A,D][A,E] | [D,D]2 [D,D]2 [D,A,][D,A,] | %8
[M:15/16] [E,A,][E,C]/-[E,C]/[E,E]- [E,E]3- [E,E]/[E,D] |[M:5/8][K:treble] [A,C]-[A,C]- [A,C]3 | %10
[M:1/4] F_F |[M:3/4] z2 G4 | [D,D]6 | D4 z2 |[M:2/4] [F,A,E]4 |[M:1/4][K:treble] [A,G][A,G] | %16
[M:3/4][K:bass] [D,D]D, D,[E,C] [F,D][F,D] |[M:7/8] [G,D]2[K:treble] [G,DG]3 [=G,D_F][G,DF] | %18
[M:15/16] [A,DF][A,DF]/-[A,DF]/[A,CG]- [A,CG]3- [A,CG]/[K:bass][D,A,] |[M:2/4] [D,A,]4 |] %20
V:3
 x6 | x6 | x6 | x6 |[M:2/4] x4 |[M:1/4] x2 |[M:3/4] x6 | x6 |[M:15/16] x15/2 |[M:5/8] z2 G3 | %10
[M:1/4] x2 |[M:3/4] GG z C Cc | x6 | z B, B,B =AB |[M:2/4] x4 |[M:1/4] x2 | %16
[M:3/4] z D D[Ae] [Ad][Ac] |[M:7/8] x7 |[M:15/16] x15/2 |[M:2/4] x4 |] %20
V:4
 x6 | x6 | x6 | x6 |[M:2/4] x4 |[M:1/4] x2 |[M:3/4] x6 | x6 |[M:15/16] x15/2 | %9
[M:5/8][K:treble] x5 |[M:1/4] x2 |[M:3/4] [A,CE][A,CE] [A,C]A, A,[A,EG] | x6 | %13
 [F,B,]F, F,[F,B,D] [F,C][F,B,D] |[M:2/4] x4 |[M:1/4][K:treble] x2 |[M:3/4][K:bass] x6 | %17
[M:7/8] x2[K:treble] x5 |[M:15/16] x13/2[K:bass] x |[M:2/4] x4 |] %20

